dist/assets/Document.svg

<svg width="23" height="25" viewBox="0 0 23 25" fill="#5D7285" xmlns="http://www.w3.org/2000/svg">
<g id="Iconly/Bold/Document">
<g id="Document">
<path id="Vector" d="M16.3368 0.588791C20.1043 0.588791 22.2021 2.75977 22.2021 6.4797V19.0787C22.2021 22.8596 20.1043 24.9818 16.3368 24.9818H6.11493C2.40719 24.9818 0.248413 22.8596 0.248413 19.0787V6.4797C0.248413 2.75977 2.40719 0.588791 6.11493 0.588791H16.3368ZM6.44423 17.3468C6.07834 17.3102 5.72464 17.4809 5.5295 17.7981C5.33435 18.103 5.33435 18.5054 5.5295 18.8226C5.72464 19.1275 6.07834 19.3104 6.44423 19.2616H16.0063C16.4929 19.2128 16.86 18.7969 16.86 18.3103C16.86 17.8102 16.4929 17.3956 16.0063 17.3468H6.44423ZM16.0063 11.784H6.44423C5.91857 11.784 5.49291 12.2121 5.49291 12.7365C5.49291 13.261 5.91857 13.6878 6.44423 13.6878H16.0063C16.5307 13.6878 16.9576 13.261 16.9576 12.7365C16.9576 12.2121 16.5307 11.784 16.0063 11.784ZM10.0898 6.26016H6.44423V6.27236C5.91857 6.27236 5.49291 6.69924 5.49291 7.22369C5.49291 7.74814 5.91857 8.17501 6.44423 8.17501H10.0898C10.6154 8.17501 11.0423 7.74814 11.0423 7.21027C11.0423 6.68704 10.6154 6.26016 10.0898 6.26016Z"/>
</g>
</g>
</svg>

<svg width="23" height="25" fill="#5D7285" xmlns="http://www.w3.org/2000/svg"><path d="M16.337.589c3.767 0 5.865 2.17 5.865 5.89v12.6c0 3.78-2.098 5.903-5.865 5.903H6.115c-3.708 0-5.867-2.122-5.867-5.903v-12.6c0-3.72 2.16-5.89 5.867-5.89h10.222ZM6.444 17.347a.97.97 0 0 0-.915 1.476.947.947 0 0 0 .915.439h9.562a.955.955 0 0 0 .854-.952c0-.5-.367-.914-.854-.963H6.444Zm9.562-5.563H6.444a.953.953 0 0 0 0 1.904h9.562a.953.953 0 0 0 0-1.904ZM10.09 6.26H6.444v.012a.952.952 0 0 0 0 1.903h3.646a.956.956 0 0 0 .952-.965.953.953 0 0 0-.952-.95Z"/></svg>19.3104 6.44423 19.2616H16.0063C16.4929 19.2128 16.86 18.7969 16.86 18.3103C16.86 17.8102 16.4929 17.3956 16.0063 17.3468H6.44423ZM16.0063 11.784H6.44423C5.91857 11.784 5.49291 12.2121 5.49291 12.7365C5.49291 13.261 5.91857 13.6878 6.44423 13.6878H16.0063C16.5307 13.6878 16.9576 13.261 16.9576 12.7365C16.9576 12.2121 16.5307 11.784 16.0063 11.784ZM10.0898 6.26016H6.44423V6.27236C5.91857 6.27236 5.49291 6.69924 5.49291 7.22369C5.49291 7.74814 5.91857 8.17501 6.44423 8.17501H10.0898C10.6154 8.17501 11.0423 7.74814 11.0423 7.21027C11.0423 6.68704 10.6154 6.26016 10.0898 6.26016Z"/>
</g>
</g>
</svg>
